public/headerImg/logo.svg

<svg width="93" height="62" viewBox="0 0 93 62" fill="none" xmlns="http://www.w3.org/2000/svg">
<g clip-path="url(#clip0_130_27)">
<path d="M1.11865 36.9386H92.026L81.5852 19.8489L61.9899 22.6004L29.1381 0.741394L1.11865 36.9386Z" stroke="white" stroke-width="1.44" stroke-miterlimit="10"/>
<path d="M3.85822 36.5718L28.8109 5.19727L61.0234 36.5718H3.85822Z" stroke="white" stroke-width="1.44" stroke-miterlimit="10"/>
<path d="M70.1705 36.5718L81.22 20.4985L91.4552 36.5718H70.1705Z" stroke="white" stroke-width="1.42" stroke-miterlimit="10"/>
<path d="M75.5354 36.2049L81.5396 28.111L86.9045 36.2049H75.5354Z" stroke="white" stroke-width="1.44" stroke-miterlimit="10"/>
<path d="M58.7252 20.1317V13.4517H63.801V21.9966" stroke="white" stroke-width="1.44" stroke-miterlimit="10"/>
<path d="M35.9109 19.3215H23.5753V32.1541H35.9109V19.3215Z" stroke="white" stroke-width="1.44" stroke-miterlimit="10"/>
<path d="M29.7393 19.4897V31.7949" stroke="white" stroke-width="1.44" stroke-miterlimit="10"/>
<path d="M8.03601 45.4605H3.82776V43.9319H14.0782V45.4605H9.84715V57.8422H8.03601V45.4605Z" fill="white" stroke="white" stroke-width="0.21" stroke-miterlimit="10"/>
<path d="M14.6338 50.9712C14.6338 49.7941 14.6109 48.7853 14.55 47.8528H16.1329L16.1938 49.8094H16.2775C16.7265 48.4719 17.8147 47.6235 19.0323 47.6235C19.2377 47.6235 19.3823 47.6465 19.5421 47.6847V49.3967C19.3595 49.3585 19.1692 49.3356 18.9257 49.3356C17.6549 49.3356 16.7493 50.3062 16.4982 51.6667C16.4601 51.9113 16.4145 52.2017 16.4145 52.5151V57.8346H14.6261V50.9635L14.6338 50.9712Z" fill="white" stroke="white" stroke-width="0.21" stroke-miterlimit="10"/>
<path d="M23.446 45.0479C23.4688 45.6669 23.0122 46.1637 22.2969 46.1637C21.6577 46.1637 21.2087 45.6669 21.2087 45.0479C21.2087 44.4288 21.6805 43.9167 22.3349 43.9167C22.9894 43.9167 23.446 44.4135 23.446 45.0479ZM21.4294 57.8422V47.8605H23.2405V57.8422H21.4294Z" fill="white" stroke="white" stroke-width="0.21" stroke-miterlimit="10"/>
<path d="M35.2412 52.7673C35.2412 56.4588 32.6919 58.0715 30.2948 58.0715C27.6009 58.0715 25.5311 56.092 25.5311 52.9354C25.5311 49.5954 27.7075 47.6312 30.4623 47.6312C33.217 47.6312 35.2488 49.7177 35.2488 52.7673H35.2412ZM27.3498 52.8666C27.3498 55.0525 28.6054 56.7034 30.3709 56.7034C32.1364 56.7034 33.392 55.0754 33.392 52.8284C33.392 51.1393 32.5474 48.9916 30.4166 48.9916C28.2858 48.9916 27.3574 50.9712 27.3574 52.8666H27.3498Z" fill="white" stroke="white" stroke-width="0.21" stroke-miterlimit="10"/>
<path d="M48.1171 57.2231C47.3181 57.5136 45.7352 57.9874 43.8632 57.9874C41.7705 57.9874 40.0431 57.4524 38.6885 56.1531C37.4938 54.999 36.7556 53.1418 36.7556 50.9711C36.7784 46.821 39.6093 43.7944 44.2513 43.7944C45.857 43.7944 47.105 44.146 47.7062 44.4364L47.2724 45.9038C46.5343 45.5752 45.6059 45.3077 44.2133 45.3077C40.8421 45.3077 38.6429 47.4095 38.6429 50.8947C38.6429 54.3799 40.7584 56.5047 43.985 56.5047C45.1569 56.5047 45.9559 56.3365 46.3669 56.1302V51.98H43.5512V50.5355H48.1095V57.2231H48.1171Z" fill="white" stroke="white" stroke-width="0.21" stroke-miterlimit="10"/>
<path d="M50.7957 50.9712C50.7957 49.7941 50.7729 48.7853 50.712 47.8528H52.2949L52.3558 49.8094H52.4395C52.8885 48.4719 53.9767 47.6235 55.1942 47.6235C55.3997 47.6235 55.5443 47.6465 55.7041 47.6847V49.3967C55.5215 49.3585 55.3312 49.3356 55.0877 49.3356C53.8169 49.3356 52.9113 50.3062 52.6602 51.6667C52.6221 51.9113 52.5764 52.2017 52.5764 52.5151V57.8346H50.7881V50.9635L50.7957 50.9712Z" fill="white" stroke="white" stroke-width="0.21" stroke-miterlimit="10"/>
<path d="M66.3046 52.7673C66.3046 56.4588 63.7553 58.0715 61.3582 58.0715C58.6644 58.0715 56.5945 56.092 56.5945 52.9354C56.5945 49.5954 58.7709 47.6312 61.5257 47.6312C64.2804 47.6312 66.3123 49.7177 66.3123 52.7673H66.3046ZM58.4132 52.8666C58.4132 55.0525 59.6689 56.7034 61.4343 56.7034C63.1998 56.7034 64.4555 55.0754 64.4555 52.8284C64.4555 51.1393 63.6108 48.9916 61.48 48.9916C59.3492 48.9916 58.4208 50.9712 58.4208 52.8666H58.4132Z" fill="white" stroke="white" stroke-width="0.21" stroke-miterlimit="10"/>
<path d="M76.9052 55.1136C76.9052 56.1454 76.928 57.055 76.9889 57.8345H75.3832L75.2843 56.2066H75.2462C74.7744 57.0091 73.7243 58.0638 71.9588 58.0638C70.3988 58.0638 68.5267 57.2002 68.5267 53.692V47.8528H70.3379V53.3787C70.3379 55.2741 70.9162 56.5582 72.56 56.5582C73.7699 56.5582 74.6146 55.7098 74.9418 54.9073C75.0408 54.6398 75.1093 54.3111 75.1093 53.9825V47.8528H76.9204V55.1136H76.9052Z" fill="white" stroke="white" stroke-width="0.21" stroke-miterlimit="10"/>
<path d="M79.911 51.1164C79.911 49.84 79.873 48.8082 79.8273 47.8605H81.4482L81.5319 49.5725H81.57C82.3081 48.3573 83.4801 47.6312 85.101 47.6312C87.5057 47.6312 89.3092 49.6718 89.3092 52.7061C89.3092 56.2983 87.1328 58.0715 84.789 58.0715C83.4724 58.0715 82.3234 57.4906 81.7298 56.5047H81.6917V61.9312H79.9034V51.124L79.911 51.1164ZM81.6994 53.7761C81.6994 54.0436 81.7374 54.2882 81.7831 54.5175C82.1103 55.7786 83.1985 56.6423 84.4922 56.6423C86.4022 56.6423 87.5133 55.0754 87.5133 52.7825C87.5133 50.7801 86.4631 49.068 84.553 49.068C83.3203 49.068 82.1712 49.9546 81.8211 51.3151C81.7602 51.5444 81.6994 51.8119 81.6994 52.0565V53.7685V53.7761Z" fill="white" stroke="white" stroke-width="0.21" stroke-miterlimit="10"/>
</g>
<defs>
<clipPath id="clip0_130_27">
<rect width="93" height="62" fill="white"/>
</clipPath>
</defs>
</svg>

<svg width="93" height="62" fill="none" xmlns="http://www.w3.org/2000/svg"><g clip-path="url(#a)" stroke="#fff" stroke-miterlimit="10"><path d="M1.119 36.939h90.907l-10.44-17.09L61.99 22.6 29.138.741 1.118 36.94Z" stroke-width="1.44"/><path d="M3.858 36.572 28.811 5.197l32.212 31.375H3.858Z" stroke-width="1.44"/><path d="m70.17 36.572 11.05-16.074 10.235 16.074H70.171Z" stroke-width="1.42"/><path d="m75.535 36.205 6.005-8.094 5.364 8.094H75.535ZM58.725 20.132v-6.68h5.076v8.545M35.91 19.322H23.576v12.832h12.336V19.321ZM29.74 19.49v12.305" stroke-width="1.44"/><path d="M8.036 45.46H3.828v-1.528h10.25v1.529h-4.23v12.381H8.035V45.461ZM14.634 50.971c0-1.177-.023-2.186-.084-3.118h1.583l.06 1.956h.084c.45-1.337 1.538-2.185 2.755-2.185.206 0 .35.023.51.06v1.713a2.9 2.9 0 0 0-.616-.061c-1.271 0-2.177.97-2.428 2.33-.038.245-.084.536-.084.85v5.319h-1.788v-6.871l.008.007ZM23.446 45.048c.023.619-.434 1.116-1.15 1.116-.638 0-1.087-.497-1.087-1.116 0-.62.471-1.131 1.126-1.131.654 0 1.111.496 1.111 1.13Zm-2.017 12.794v-9.981h1.812v9.981h-1.812ZM35.241 52.767c0 3.692-2.55 5.304-4.946 5.304-2.694 0-4.764-1.979-4.764-5.136 0-3.34 2.177-5.304 4.931-5.304 2.755 0 4.787 2.087 4.787 5.136h-.008Zm-7.891.1c0 2.186 1.255 3.836 3.02 3.836 1.766 0 3.022-1.628 3.022-3.875 0-1.689-.845-3.836-2.975-3.836-2.131 0-3.06 1.98-3.06 3.875h-.007ZM48.117 57.223c-.799.29-2.382.764-4.254.764-2.093 0-3.82-.535-5.175-1.834-1.194-1.154-1.932-3.011-1.932-5.182.022-4.15 2.853-7.177 7.495-7.177 1.606 0 2.854.352 3.455.642l-.434 1.468c-.738-.329-1.666-.596-3.059-.596-3.37 0-5.57 2.102-5.57 5.587s2.115 5.61 5.342 5.61c1.172 0 1.97-.169 2.382-.375v-4.15H43.55v-1.444h4.558v6.687h.008ZM50.796 50.971c0-1.177-.023-2.186-.084-3.118h1.583l.06 1.956h.085c.449-1.337 1.537-2.185 2.754-2.185.206 0 .35.023.51.06v1.713a2.9 2.9 0 0 0-.616-.061c-1.271 0-2.177.97-2.428 2.33-.038.245-.084.536-.084.85v5.319h-1.788v-6.871l.008.007ZM66.305 52.767c0 3.692-2.55 5.304-4.947 5.304-2.694 0-4.764-1.979-4.764-5.136 0-3.34 2.177-5.304 4.932-5.304 2.754 0 4.786 2.087 4.786 5.136h-.007Zm-7.892.1c0 2.186 1.256 3.836 3.021 3.836 1.766 0 3.022-1.628 3.022-3.875 0-1.689-.845-3.836-2.976-3.836-2.13 0-3.06 1.98-3.06 3.875h-.007ZM76.905 55.114c0 1.031.023 1.941.084 2.72h-1.606l-.099-1.627h-.038c-.472.802-1.522 1.857-3.287 1.857-1.56 0-3.432-.864-3.432-4.372v-5.84h1.81v5.527c0 1.895.58 3.18 2.223 3.18 1.21 0 2.055-.85 2.382-1.652.099-.267.167-.596.167-.924v-6.13h1.811v7.26h-.015ZM79.911 51.116a64.96 64.96 0 0 0-.084-3.255h1.621l.084 1.712h.038c.738-1.216 1.91-1.942 3.531-1.942 2.405 0 4.208 2.04 4.208 5.075 0 3.592-2.176 5.365-4.52 5.365-1.317 0-2.466-.58-3.06-1.566h-.037v5.426h-1.789V51.124l.008-.008Zm1.788 2.66c0 .268.038.512.084.741.327 1.262 1.415 2.125 2.71 2.125 1.91 0 3.02-1.567 3.02-3.86 0-2.002-1.05-3.714-2.96-3.714-1.233 0-2.382.887-2.732 2.247-.06.23-.122.497-.122.742V53.776Z" fill="#fff" stroke-width=".21"/></g><defs><clipPath id="a"><path fill="#fff" d="M0 0h93v62H0z"/></clipPath></defs></svg>
